X: 41379
T: Tvihuga
R: waltz
M: 3/4
K: Gmajor
|:D/ G>A|B2- B>c (3BAG|A2- A>A G>F|E>G G>E G>B|A>F D>F G>A|
B2- B>c (3BAG|A2- A>A G>F|E>G G>D F>A|G2- G3/2:|
|:d/ g>f|e2- e>f e>d|B2- B>B (3BAG|A2 A>G A>B|A>G E>g g>f|
e2- e>f (3fed|B2- B>B (3BAG|A2 A>G A>B|A>G E2 E>D|
C>D E>F G>A|B>c d>B A>B|G2- G>B B>A|G2- G3/2:|

